src/icons/security.svg

<svg width="55" height="55" viewBox="0 0 55 55" fill="none" xmlns="http://www.w3.org/2000/svg">
<path d="M31.5104 16.0417H29.7917V11.4583C29.7917 5.13906 24.6497 0 18.3333 0C12.0141 0 6.875 5.13906 6.875 11.4583V16.0417H5.15625C2.31458 16.0417 0 18.3562 0 21.1979V40.6771C0 43.5187 2.31458 45.8333 5.15625 45.8333H28.1417C28.3021 45.0083 28.6687 44.2291 29.1958 43.5416C27.775 41.7312 27.5229 39.1875 28.7146 37.125L30.5708 33.9167C31.7625 31.8542 34.1 30.7771 36.3687 31.1208C36.4604 30.9146 36.5521 30.7083 36.6667 30.5021V21.1979C36.6667 18.3562 34.3521 16.0417 31.5104 16.0417ZM11.4583 11.4583C11.4583 7.66849 14.5435 4.58333 18.3333 4.58333C22.1232 4.58333 25.2083 7.66849 25.2083 11.4583V16.0417H11.4583V11.4583Z" fill="white"/>
<path d="M52.0265 44.6159C52.0723 44.2607 52.1354 43.9083 52.1354 43.5417C52.1354 43.1721 52.0695 42.8227 52.0265 42.4675L54.0919 40.9034C54.5531 40.5568 54.682 39.918 54.3926 39.4167L52.5393 36.2083C52.2499 35.7099 51.6341 35.5008 51.1012 35.7242L48.7236 36.7268C48.145 36.2828 47.5291 35.8932 46.8473 35.6096L46.5322 33.0859C46.4578 32.513 45.9736 32.0833 45.395 32.0833H41.6882C41.1124 32.0833 40.6226 32.513 40.5538 33.0859L40.2359 35.6096C39.557 35.8932 38.9382 36.2857 38.3596 36.7268L35.982 35.7242C35.452 35.5008 34.8361 35.707 34.5468 36.2083L32.6934 39.4167C32.4041 39.9151 32.533 40.5539 32.9913 40.9034L35.0567 42.4675C35.0109 42.8227 34.9507 43.175 34.9507 43.5417C34.9507 43.9112 35.0137 44.2607 35.0567 44.6159L32.9913 46.18C32.533 46.5266 32.4041 47.1654 32.6934 47.6667L34.5468 50.8779C34.8361 51.3763 35.452 51.5854 35.982 51.362L38.3596 50.3565C38.9382 50.8005 39.557 51.1901 40.2359 51.4737L40.5538 53.9974C40.6226 54.5703 41.1096 55 41.6882 55H45.3921C45.9708 55 46.4578 54.5703 46.5294 53.9974L46.8445 51.4737C47.5262 51.1901 48.145 50.7977 48.7236 50.3565L51.0984 51.3591C51.6312 51.5826 52.2471 51.3763 52.5364 50.875L54.3898 47.6638C54.6791 47.1654 54.5502 46.5266 54.089 46.1771L52.0265 44.6159ZM43.5416 48.125C41.0093 48.125 38.9583 46.074 38.9583 43.5417C38.9583 41.0094 41.0093 38.9583 43.5416 38.9583C46.0739 38.9583 48.1249 41.0094 48.1249 43.5417C48.1249 46.074 46.0739 48.125 43.5416 48.125Z" fill="white"/>
</svg>

<svg width="55" height="55" fill="none" xmlns="http://www.w3.org/2000/svg"><path d="M31.51 16.042h-1.718v-4.584C29.792 5.14 24.65 0 18.333 0 12.014 0 6.875 5.14 6.875 11.458v4.584H5.156A5.164 5.164 0 0 0 0 21.198v19.48a5.164 5.164 0 0 0 5.156 5.155h22.986a5.503 5.503 0 0 1 1.054-2.291c-1.421-1.81-1.673-4.355-.481-6.417l1.856-3.208a5.735 5.735 0 0 1 5.798-2.796c.091-.206.183-.413.298-.619v-9.304a5.164 5.164 0 0 0-5.157-5.156Zm-20.052-4.584c0-3.79 3.085-6.875 6.875-6.875s6.875 3.085 6.875 6.875v4.584h-13.75v-4.584ZM52.026 44.616c.046-.355.11-.708.11-1.074 0-.37-.067-.72-.11-1.074l2.066-1.565c.461-.346.59-.985.3-1.486l-1.853-3.209a1.15 1.15 0 0 0-1.438-.484l-2.377 1.003c-.579-.444-1.195-.834-1.877-1.117l-.315-2.524a1.147 1.147 0 0 0-1.137-1.002h-3.707c-.576 0-1.065.43-1.134 1.002l-.318 2.524c-.679.283-1.298.676-1.876 1.117l-2.378-1.003a1.145 1.145 0 0 0-1.435.485l-1.854 3.208c-.289.498-.16 1.137.298 1.486l2.066 1.565c-.046.355-.106.707-.106 1.074 0 .37.063.719.106 1.074L32.99 46.18a1.147 1.147 0 0 0-.298 1.487l1.854 3.211c.29.498.905.708 1.435.484l2.378-1.005c.578.444 1.197.833 1.876 1.117l.318 2.524A1.14 1.14 0 0 0 41.688 55h3.704c.579 0 1.066-.43 1.137-1.002l.315-2.524c.682-.284 1.301-.676 1.88-1.117l2.374 1.002a1.147 1.147 0 0 0 1.438-.484l1.854-3.211c.29-.498.16-1.137-.301-1.487l-2.063-1.561Zm-8.484 3.51a4.582 4.582 0 0 1-4.584-4.584 4.582 4.582 0 0 1 4.584-4.584 4.582 4.582 0 0 1 4.583 4.584 4.582 4.582 0 0 1-4.583 4.583Z" fill="#0E314C" fill-opacity=".9"/></svg>
